!!!OTL: KEIN ALTER IST VON LIEBE FREI
!!!ARE: Europa, Mitteleuropa, Deutschland
!!!SCT: B0654
!!!YEM: Copyright 1995, estate of Helmut Schaffrath.
**kern
*ICvox
*Ivox
*M4/4
*k[f#c#g#d#]
*E:
{4B
=1
4e
4e
4g#
4g#
=2
4b
4b
4g#
8r}
{8b
=3
4.a
8b
4.g#
8a
=4
8f#
8b
8b
8b
4b}
{4B
=5
4e
4e
4g#
4g#
=6
4b
4b
4g#
8r}
{8b
=7
4.a
8b
4.g#
8a
=8
8f#
8b
8b
8b
4b}
{4b
=9
2b
4cc#
4dd#
=10
2.ee
4b
=11
4.b
8cc#
4b
4a
=12
2a
4g#}
{4b
=13
2b
4cc#
4dd#
=14
2.ee
4b
=15
4.b
8cc#
4b
4a
=16
2a
4g#}
{4b
=17
4a
4g#
4f#
4e
=18
4d#
4e
4f#}
{4b
=19
4a
4g#
4f#
4e
=20
4d#
4e
4f#}
{4b
=21
4b
4b
4g#
4e
=22
2.cc#
4a
=23
2g#
2f#
=24
2e
4r}
==
!!!AGN: Moral - Lied, Liebe
!!!ONB: ESAC (Essen Associative Code) Database: BOEHME
!!!AMT: simple quadruple
!!!AIN: vox
!!!EED: Helmut Schaffrath
!!!EEV: 1.0
*-
